X: 1
T:Orlando's Return
Z:Michael J Green <GreenMichaelJ@aol.com> 2003-4-14
M:4/4
L:1/8
Q:160
K:G
   DEF  | GFGA G2A2 | BABc B2c2 | d2B2 c2B2 | AGFE D2D2 | GFGA G2A2 | BABc B2c2 | d2G2 BAGF | G4 z :|
|: Bc^c | d3d  d2B2 | c2e2 A2c2 | B2G2 c2B2 | AGFE D2D2 | GFGA G2A2 | BABc B2c2 | d2G2 BAGF | G4 z :|
